X:1
T:Standin In The Need of Prayer
T:Some O' These Days
T:Copyright 1918 by Homer A. Rodeheaver
T:Rodeheaver's Plantation Melodies
T:Rodeheaver's Plantation Melodies
Z:Rodeheaver's Plantation Melodies
%%score [ 1 2 3 4 ]
L:1/8
Q:1/4=70
M:4/4
K:Ab
V:1 treble nm="Soprano" snm="S."
V:2 treble nm="Alto" snm="A."
V:3 bass nm="Tenor" snm="T."
V:4 bass nm="Bass" snm="B."
V:1
 E2- E/F/A/F/ A/AA/ AA | c2- c/=B/c/_B/ A4 | F2- F/=E/F/F/ A/AF/ AA | AA A/A/A AA/A/ FE | %4
 E2- E/F/A/F/ A/AA/ AA | c2- c/=B/c/_B/ A3 e/e/ | e/ee/ ee cA B/B/c | (c/A/ A3 A2) z2 :| %8
V:2
 C2- C/C/C/C/ C/CC/ CC | E2- E/=D/E/_D/ C4 | D2- D/D/D/D/ F/FD/ FF | FF F/F/F FF/F/ DC | %4
w: I'm- * a- go- na walk on the streets of|glo- * * * * ry,|I'm- * a- go- na walk on the streets of|glo- ry some o' these days, hal- le- lu- yah!|
 C2- C/C/C/C/ C/CC/ CC | E2- E/=D/E/_D/ C3 A/A/ | c/cc/ cc EC D/D/E | (E/C/ C3 C2) z2 :| %8
w: I'm- * a- go- na walk on the streets of|glo- * * * * ry Gon- na|walk on the streets of glo- ry some o' these|days- * * .|
V:3
 A,2- A,/A,/A,/A,/ A,/A,A,/ A,A, | A,4 A,4 | A,2- A,/G,/A,/A,/ D/DA,/ DD | DD D/D/D DD/D/ DA, | %4
 A,2- A,/A,/A,/A,/ A,/A,A,/ A,A, | A,4 A,3 C/C/ | C/CC/ CC A,A, G,/G,/G, | A,4- A,2 z2 :| %8
V:4
 A,,2- A,,/A,,/A,,/A,,/ A,,/A,,A,,/ A,,A,, | A,,4 A,,4 | D,2- D,/D,/D,/D,/ D,/D,D,/ D,D, | %3
 D,D, D,/D,/D, D,D,/D,/ A,A, | A,,2- A,,/A,,/A,,/A,,/ A,,/A,,A,,/ A,,A,, | A,,4 A,,3 A,/A,/ | %6
"_1. I'm a-gonna walk on the streets of glory, some o' these days.\n2. I'm a-gonna sing an' a-shout for ever, some o' these days.\n3. I'm a-gonna see my a-sainted mother, some o' these days.\n4. I'm a-gonna see my a-blessed Savior, some o' these days." A,/A,A,/ A,A, A,A, E,/E,/E, | %7
 A,,4- A,,2 z2 :| %8

